X: 13021
T: For Lak of Gold I lost her
N: In the title, "Lack" is spelled "Lak"; in the index, it's spelled "lake".
%R: reel + jig
B: James Oswald "The Caledonian Pocket Companion" v.1 b.3 p.2 #1
S: https://ia800501.us.archive.org/18/items/caledonianpocket01rugg/caledonianpocket01rugg_bw.pdf
Z: 2020 John Chambers <jc:trillian.mit.edu>
M: C
L: 1/8
K: D
"_Brisk"FE |\
D3F ABdA | B2 e4 dB | d2a2 fdbd | f2 a4 d2 |\
gaba fgaf | gfed e2(d/e/f) | D3F ABdA |
B2 d4 :: de |\
fdeB dABF | E2 e4 fa | bafb adbd | f2 a4 d2 |\
gaba fgaf | afed Te2(d/e/f) |
D3F ABdA | B2 d4 :: "_Vari.n"(FE) |\
D3F AFdA | B2e2 (fe)(dB) | (de)(fg) (af)(ed) | (fg)(ab) a2d2 |\
gdbd fdad |
bagf efde | fdef dBAF | A2 d4 :: (de) |\
f>d (e/d/B) d>A (B/A/F) | E2(ef) e2fa |\
(b/a/g) (f/e/d) (a/f/d) bd |
ad'c'b (af)(ed) |\
(g/a/b) Gg (f/g/a) Fa | (b/g/e) (a/f/d) Te2 (d/e/f) | DEFG Afed | B2(de) d2 :|
[M:6/8]\
|: "_Giga"(F/E/) |\
D2F (AF)D | E2e (ed)B | def afd | Tf2a afd |\
(g/a/b)g (f/g/a)f | Te2d ede | fed BAG | A2d d2 :|
|: e |\
fed BAF | E2e efa | baf afd | Tf2a afd |\
(g/f/g/a/)g (f/e/f/g/)f | afd Tede | fed BAF | A2d d2 :|


